static/img/logo-old.svg

<?xml version="1.0" encoding="UTF-8" standalone="no"?>

<svg
   width="401.12799"
   height="216.89998"
   viewBox="0 0 401.128 216.89999"
   overflow="visible"
   enable-background="new 0 0 401.128 216.9"
   xml:space="preserve"
   id="svg2"
   sodipodi:version="0.32"
   inkscape:version="0.43"
   sodipodi:docname="logo-old.svg"
   version="1.1"
   inkscape:export-filename="logo-old.svg"
   inkscape:export-xdpi="96"
   inkscape:export-ydpi="96"
   xmlns:inkscape="http://www.inkscape.org/namespaces/inkscape"
   xmlns:sodipodi="http://sodipodi.sourceforge.net/DTD/sodipodi-0.dtd"
   xmlns="http://www.w3.org/2000/svg"
   xmlns:svg="http://www.w3.org/2000/svg"
   xmlns:rdf="http://www.w3.org/1999/02/22-rdf-syntax-ns#"
   xmlns:cc="http://creativecommons.org/ns#"
   xmlns:dc="http://purl.org/dc/elements/1.1/"><metadata
   id="metadata82"><rdf:RDF><cc:Work
       rdf:about=""><dc:format>image/svg+xml</dc:format><dc:type
         rdf:resource="http://purl.org/dc/dcmitype/StillImage" /></cc:Work></rdf:RDF></metadata><defs
   id="defs80" /><sodipodi:namedview
   inkscape:window-height="542"
   inkscape:window-width="839"
   inkscape:pageshadow="2"
   inkscape:pageopacity="0.0"
   borderopacity="1.0"
   bordercolor="#666666"
   pagecolor="#ffffff"
   id="base"
   inkscape:zoom="1.2192621"
   inkscape:cx="200.564"
   inkscape:cy="125.99806"
   inkscape:window-x="28"
   inkscape:window-y="159"
   inkscape:current-layer="svg2"
   inkscape:showpageshadow="2"
   inkscape:pagecheckerboard="0"
   inkscape:deskcolor="#d1d1d1" />
	<g
   id="g5"
   transform="translate(0.06608378,0.10558283)">
			<path
   style="fill:#100f0e"
   id="path7"
   d="m 0,166.931 c -1.625,6.576 27.036,8.195 51.005,-1.257 35.738,-14.093 34.762,-63.576 34.762,-63.576 0,0 -2.275,-2.505 -7.795,0.314 -3.993,2.036 -22.26,10.707 -22.095,7.517 0.329,-6.264 23.72,-14.093 27.942,-14.093 4.222,0 7.475,-5.948 0.976,-7.202 -6.501,-1.257 -30.542,10.331 -35.413,17.224 -2.639,3.732 -6.174,13.465 4.871,10.96 11.045,-2.505 25.017,-8.141 25.017,-8.141 0,0 -3.463,36.414 -26.315,48.857 C 25.338,172.569 1.596,160.469 0,166.931 Z" />
			<path
   style="fill:#100f0e"
   id="path9"
   d="m 108.508,111.962 c 0,2.681 -2.253,4.854 -5.035,4.854 -2.779,0 -5.035,-2.174 -5.035,-4.854 0,-2.679 2.256,-4.853 5.035,-4.853 2.782,0 5.035,2.175 5.035,4.853 z" />
			<path
   style="fill:#100f0e"
   id="path11"
   d="m 152.041,110.397 c 0,2.681 -2.255,4.855 -5.037,4.855 -2.779,0 -5.033,-2.174 -5.033,-4.855 0,-2.681 2.254,-4.854 5.033,-4.854 2.782,0 5.037,2.174 5.037,4.854 z" />
			<path
   style="fill:#100f0e"
   id="path13"
   d="m 200.12,108.517 c 0,2.681 -2.254,4.853 -5.034,4.853 -2.781,0 -5.036,-2.172 -5.036,-4.853 0,-2.679 2.255,-4.853 5.036,-4.853 2.78,0.001 5.034,2.174 5.034,4.853 z" />
			<path
   style="fill:#100f0e"
   id="path15"
   d="m 234.917,108.517 c 0,2.681 -2.255,4.853 -5.033,4.853 -2.777,0 -5.031,-2.172 -5.031,-4.853 0,-2.679 2.254,-4.853 5.031,-4.853 2.779,0.001 5.033,2.174 5.033,4.853 z" />
			<path
   style="fill:#100f0e"
   id="path17"
   d="m 119.223,169.436 c 2.955,-2.036 -1.298,-11.902 -0.649,-31.009 0.649,-19.104 0.649,-25.993 9.097,-31.002 8.445,-5.01 11.124,-11.582 6.174,-15.35 -6.174,-4.698 -15.945,-7.471 -19.169,-1.25 -1.301,2.503 17.87,2.503 14.62,6.889 -3.249,4.385 -13.648,7.835 -15.271,14.097 -1.623,6.262 -2.597,20.983 -1.623,33.198 0.856,10.729 2.274,27.56 6.821,24.427 z" />
			<path
   style="fill:#100f0e"
   id="path19"
   d="m 174.452,114.628 c 8.771,-0.316 11.046,-6.895 11.369,-15.036 0.214,-5.401 -3.247,-11.588 -6.822,-10.337 -3.573,1.254 5.198,17.854 -5.199,18.792 -7.871,0.71 -3.575,-16.6 -9.096,-15.974 -5.521,0.628 -4.478,7.85 -2.924,12.84 1.95,6.268 5.849,9.956 12.672,9.715 z" />
			<path
   style="fill:#100f0e"
   id="path21"
   d="m 212.98,111.809 c 4.869,0 5.547,-30.408 2.921,-60.445 C 213.3,21.61 206.154,-1.881 200.958,0 c -5.774,2.09 5.522,21.61 8.445,52.617 3.183,33.758 -0.973,59.192 3.577,59.192 z" />
			<path
   style="fill:#100f0e"
   id="path23"
   d="m 191.697,43.982 c -0.592,11.435 -18.553,31.48 -31.167,15.74 -12.617,-15.74 5.193,-37.202 11.873,-37.916 6.676,-0.717 20.034,7.866 19.294,22.176 z" />
		</g><g
   id="g25"
   transform="translate(0.06608378,0.10558283)">
			<path
   style="fill:#100f0e;stroke:#100f0e;stroke-linecap:round;stroke-linejoin:bevel"
   id="path27"
   d="m 235.316,126.057 4.161,4.012 14.565,-15.049 c 0,0 28.077,35.109 63.988,35.109 35.896,0 73.35,-17.556 67.628,-69.716 C 383.62,61.85 372.135,49.818 372.135,49.818 l 28.611,-10.533 -4.68,-5.517 -28.618,11.034 c 0,0 -31.726,-28.588 -62.945,-29.091 -31.214,-0.502 -59.825,16.05 -63.985,43.134 -4.162,27.084 9.883,51.662 9.883,51.662 z" />
			<path
   style="fill:#fffdfc;stroke:#100f0e"
   id="path29"
   d="m 260.284,111.509 c 0,0 23.644,-19.526 48.899,-33.604 33.298,-18.559 57.229,-26.583 57.229,-26.583 0,0 26.528,33.605 11.444,62.695 -15.088,29.091 -48.38,36.617 -76.995,28.086 -29.261,-8.721 -40.577,-30.594 -40.577,-30.594 z" />
			<path
   style="fill:#100f0e"
   id="path31"
   d="m 320.082,37.139 c 4.869,6.908 0.317,19.647 -1.019,29.252 -2.239,16.099 2.036,42.994 7.533,58.308 2.005,5.581 -0.202,7.459 -8.551,0.981 -5.482,-4.254 -12.822,-12.378 -18.326,-22.184 -12.015,-21.4 -15.273,-53.989 -12.829,-59.29 1.674,-3.632 8.145,-9.03 14.66,-10.012 6.518,-0.982 15.07,-1.964 18.532,2.945 z" />
			<path
   style="fill:#fffdfc"
   id="path33"
   d="m 291.811,53.067 c 0,-6.981 21.176,-11.999 23.025,-5.583 2.263,7.854 -1.445,13.394 -1.716,30.115 -0.171,10.59 -0.686,16.217 7.209,41.364 0,0 -14.418,-8.93 -22.141,-30.939 -5.208,-14.841 -6.377,-30.137 -6.377,-34.957 z" />
		</g>
</svg>

<?xml version="1.0" encoding="UTF-8" standalone="no"?>
<!-- Generator: Adobe Illustrator 10, SVG Export Plug-In . SVG Version: 3.0.0 Build 76)  -->
<svg xmlns:dc="http://purl.org/dc/elements/1.1/" xmlns:cc="http://web.resource.org/cc/" xmlns:rdf="http://www.w3.org/1999/02/22-rdf-syntax-ns#" xmlns:svg="http://www.w3.org/2000/svg" xmlns="http://www.w3.org/2000/svg" xmlns:sodipodi="http://inkscape.sourceforge.net/DTD/sodipodi-0.dtd" xmlns:inkscape="http://www.inkscape.org/namespaces/inkscape" width="401.128" height="216.9" viewBox="0 0 401.128 216.9" overflow="visible" enable-background="new 0 0 401.128 216.9" xml:space="preserve" id="svg2" sodipodi:version="0.32" inkscape:version="0.43" sodipodi:docname="GPUL-logo_membrete.svg" sodipodi:docbase="/home/emilioj/misc/papeleo/gpul"><metadata id="metadata82"><rdf:RDF><cc:Work rdf:about=""><dc:format>image/svg+xml</dc:format><dc:type rdf:resource="http://purl.org/dc/dcmitype/StillImage"/></cc:Work></rdf:RDF></metadata><defs id="defs80">
		
		
		
	</defs><sodipodi:namedview inkscape:window-height="542" inkscape:window-width="839" inkscape:pageshadow="2" inkscape:pageopacity="0.0" borderopacity="1.0" bordercolor="#666666" pagecolor="#ffffff" id="base" inkscape:zoom="1.2192621" inkscape:cx="200.564" inkscape:cy="125.99806" inkscape:window-x="28" inkscape:window-y="159" inkscape:current-layer="svg2"/>
	<g id="g5" transform="translate(0,18)">
			<path style="fill:#100f0e" id="path7" d="M 0,166.931 C -1.625,173.507 27.036,175.126 51.005,165.674 C 86.743,151.581 85.767,102.098 85.767,102.098 C 85.767,102.098 83.492,99.593 77.972,102.412 C 73.979,104.448 55.712,113.119 55.877,109.929 C 56.206,103.665 79.597,95.836 83.819,95.836 C 88.041,95.836 91.294,89.888 84.795,88.634 C 78.294,87.377 54.253,98.965 49.382,105.858 C 46.743,109.59 43.208,119.323 54.253,116.818 C 65.298,114.313 79.27,108.677 79.27,108.677 C 79.27,108.677 75.807,145.091 52.955,157.534 C 25.338,172.569 1.596,160.469 0,166.931 z "/>
			<path style="fill:#100f0e" id="path9" d="M 108.508,111.962 C 108.508,114.643 106.255,116.816 103.473,116.816 C 100.694,116.816 98.438,114.642 98.438,111.962 C 98.438,109.283 100.694,107.109 103.473,107.109 C 106.255,107.109 108.508,109.284 108.508,111.962 z "/>
			<path style="fill:#100f0e" id="path11" d="M 152.041,110.397 C 152.041,113.078 149.786,115.252 147.004,115.252 C 144.225,115.252 141.971,113.078 141.971,110.397 C 141.971,107.716 144.225,105.543 147.004,105.543 C 149.786,105.543 152.041,107.717 152.041,110.397 z "/>
			<path style="fill:#100f0e" id="path13" d="M 200.12,108.517 C 200.12,111.198 197.866,113.37 195.086,113.37 C 192.305,113.37 190.05,111.198 190.05,108.517 C 190.05,105.838 192.305,103.664 195.086,103.664 C 197.866,103.665 200.12,105.838 200.12,108.517 z "/>
			<path style="fill:#100f0e" id="path15" d="M 234.917,108.517 C 234.917,111.198 232.662,113.37 229.884,113.37 C 227.107,113.37 224.853,111.198 224.853,108.517 C 224.853,105.838 227.107,103.664 229.884,103.664 C 232.663,103.665 234.917,105.838 234.917,108.517 z "/>
			<path style="fill:#100f0e" id="path17" d="M 119.223,169.436 C 122.178,167.4 117.925,157.534 118.574,138.427 C 119.223,119.323 119.223,112.434 127.671,107.425 C 136.116,102.415 138.795,95.843 133.845,92.075 C 127.671,87.377 117.9,84.604 114.676,90.825 C 113.375,93.328 132.546,93.328 129.296,97.714 C 126.047,102.099 115.648,105.549 114.025,111.811 C 112.402,118.073 111.428,132.794 112.402,145.009 C 113.258,155.738 114.676,172.569 119.223,169.436 z "/>
			<path style="fill:#100f0e" id="path19" d="M 174.452,114.628 C 183.223,114.312 185.498,107.733 185.821,99.592 C 186.035,94.191 182.574,88.004 178.999,89.255 C 175.426,90.509 184.197,107.109 173.8,108.047 C 165.929,108.757 170.225,91.447 164.704,92.073 C 159.183,92.701 160.226,99.923 161.78,104.913 C 163.73,111.181 167.629,114.869 174.452,114.628 z "/>
			<path style="fill:#100f0e" id="path21" d="M 212.98,111.809 C 217.849,111.809 218.527,81.401 215.901,51.364 C 213.3,21.61 206.154,-1.881 200.958,0 C 195.184,2.09 206.48,21.61 209.403,52.617 C 212.586,86.375 208.43,111.809 212.98,111.809 z "/>
			<path style="fill:#100f0e" id="path23" d="M 191.697,43.982 C 191.105,55.417 173.144,75.462 160.53,59.722 C 147.913,43.982 165.723,22.52 172.403,21.806 C 179.079,21.089 192.437,29.672 191.697,43.982 z "/>
		</g><g id="g25" transform="translate(0,18)">
			<path style="fill:#100f0e;stroke:#100f0e;stroke-linecap:round;stroke-linejoin:bevel" id="path27" d="M 235.316,126.057 L 239.477,130.069 L 254.042,115.02 C 254.042,115.02 282.119,150.129 318.03,150.129 C 353.926,150.129 391.38,132.573 385.658,80.413 C 383.62,61.85 372.135,49.818 372.135,49.818 L 400.746,39.285 L 396.066,33.768 L 367.448,44.802 C 367.448,44.802 335.722,16.214 304.503,15.711 C 273.289,15.209 244.678,31.761 240.518,58.845 C 236.356,85.929 250.401,110.507 250.401,110.507 L 235.316,126.057 z "/>
			<path style="fill:#fffdfc;stroke:#100f0e" id="path29" d="M 260.284,111.509 C 260.284,111.509 283.928,91.983 309.183,77.905 C 342.481,59.346 366.412,51.322 366.412,51.322 C 366.412,51.322 392.94,84.927 377.856,114.017 C 362.768,143.108 329.476,150.634 300.861,142.103 C 271.6,133.382 260.284,111.509 260.284,111.509 z "/>
			<path style="fill:#100f0e" id="path31" d="M 320.082,37.139 C 324.951,44.047 320.399,56.786 319.063,66.391 C 316.824,82.49 321.099,109.385 326.596,124.699 C 328.601,130.28 326.394,132.158 318.045,125.68 C 312.563,121.426 305.223,113.302 299.719,103.496 C 287.704,82.096 284.446,49.507 286.89,44.206 C 288.564,40.574 295.035,35.176 301.55,34.194 C 308.068,33.212 316.62,32.23 320.082,37.139 z "/>
			<path style="fill:#fffdfc" id="path33" d="M 291.811,53.067 C 291.811,46.086 312.987,41.068 314.836,47.484 C 317.099,55.338 313.391,60.878 313.12,77.599 C 312.949,88.189 312.434,93.816 320.329,118.963 C 320.329,118.963 305.911,110.033 298.188,88.024 C 292.98,73.183 291.811,57.887 291.811,53.067 z "/>
		</g>
</svg>
